X:1
T:Swing Low, Sweet Chariot
M:4/4
L:1/8
K:E
 G2 E4 G2| E4 E C3/2- B,3/2| EE EE GG B2| B8|c-B G4 B2| E4 E C3/2- B,3/2|\
 EE EE GG F2| E6 G2| B2 E C2 EE E| EE E2 C- B,3| EE EE GG B2| B6 B2|\
c-B G2 G2 E2| EE EE C- B,3| EE EE GG F2| E8|

